X: 179
T:Alleluia. Laudate Dominum / Quoniam confirmata est
N: Derived from Jos1501-Alleluia_Laudate_Dominum.krn
C: Josquin des Prez
%%abc-version 2.0
%%abcx-abcm2ps-target-version 5.9.1 (29 Sep 2008)
%%abc-creator hum2abc beta
%%abcx-conversion-date 2019/02/12 16:15:46
%%abc-edited-by Jesse Rodin
%%abc-edited-by Victoria Chang
%%abcx-initial-encoding-date 2011/03/21/ [sic]
%%humdrum-veritas 1139375429
%%humdrum-veritas-data 135864490
%%linebreak <none>
%%barnumbers 0
L: 1/4
M: 2/1
Q: 1/2=120
%%staves [1 2 3 4]
V: 1 clef=treble
V: 2 clef=treble-8
V: 3 clef=treble-8
V: 4 clef=bass
K: C
[V:1] c4c4 | 
[V:2] z4c4 | 
[V:3] c8 | 
[V:4] z8 | 
[V:1] c4G4 | 
[V:2] c4c4 | 
[V:3] c8 | 
[V:4] z8 | 
[V:1] z2G3FE2- | 
[V:2] G4z4 | 
[V:3] c8 | 
[V:4] C,4C,4 | 
[V:1] E2DCB,4 | 
[V:2] z4z2d2- | 
[V:3] G8- | 
[V:4] C,4G,,4 | 
[V:1] z2G4G2 | 
[V:2] d2d2d4 | 
[V:3] G8 | 
[V:4] z4G,4 | 
[V:1] G4D4 | 
[V:2] d4z4 | 
[V:3] B8 | 
[V:4] G,4G,4 | 
[V:1] z2G2E2C2 | 
[V:2] x8 | 
[V:3] c8 | 
[V:4] C,4z2C,2- | 
[V:1] G3FEDE2- | 
[V:2] x8 | 
[V:3] G8- | 
[V:4] C,2C,2C,4 | 
[V:1] E2DCB,4 | 
[V:2] x8 | 
[V:3] G8 | 
[V:4] G,,8 | 
[V:1] z2C2E3F | 
[V:2] x8 | 
[V:3] A8 | 
[V:4] z4C,4 | 
[V:1] G2CDEFGA | 
[V:2] x8 | 
[V:3] G8- | 
[V:4] C,8 | 
[V:1] BGc4B2 | 
[V:2] x8 | 
[V:3] G8 | 
[V:4] G,,8 | 
[V:1] c2C2E3F | 
[V:2] x8 | 
[V:3] c8 | 
[V:4] z4C,4- | 
[V:1] G2CDEFGA | 
[V:2] x8 | 
[V:3] c4c4 | 
[V:4] C,4C,4 | 
[V:1] BGc4B2 | 
[V:2] x8 | 
[V:3] d4d4 | 
[V:4] G,,4z2G,2 | 
[V:1] c4z2c2 | 
[V:2] x8 | 
[V:3] c8- | 
[V:4] E,2C,2F,3E, | 
[V:1] c2c2c2A2 | 
[V:2] x8 | 
[V:3] c8- | 
[V:4] C,4F,4 | 
[V:1] G4z2c2- | 
[V:2] x8 | 
[V:3] c8- | 
[V:4] E,2C,2F,3E, | 
[V:1] c2c2c4 | 
[V:2] x8 | 
[V:3] c8 | 
[V:4] C,8 | 
[V:1] G4z2c2- | 
[V:2] x8 | 
[V:3] e8- | 
[V:4] C,4z2C,2- | 
[V:1] c2c2c4 | 
[V:2] x8 | 
[V:3] e8 | 
[V:4] C,2C,2C,4 | 
[V:1] B2G2A2F2 | 
[V:2] x8 | 
[V:3] d8 | 
[V:4] G,,4z2D,2 | 
[V:1] G3F/E/D4 | 
[V:2] x8 | 
[V:3] c4B4 | 
[V:4] E,2F,2G,4 | 
[V:1] C4z4 | 
[V:2] x8 | 
[V:3] A8 | 
[V:4] C,4z2D,2 | 
[V:1] z4z2D2 | 
[V:2] x8 | 
[V:3] G8- | 
[V:4] E,2F,2G,4 | 
[V:1] E2F2G4- | 
[V:2] x8 | 
[V:3] G8 | 
[V:4] C,4z2G,2 | 
[V:1] G2FED4 | 
[V:2] x8 | 
[V:3] B8 | 
[V:4] E,2F,2G,4 | 
[V:1] C4z4 | 
[V:2] x8 | 
[V:3] c4c4 | 
[V:4] C,8 | 
[V:1] z2c2c2c2 | 
[V:2] x8 | 
[V:3] c4c4 | 
[V:4] z4z2C,2 | 
[V:1] c4G4 | 
[V:2] x8 | 
[V:3] c8 | 
[V:4] C,2C,2C,4 | 
[V:1] z4z2d2 | 
[V:2] x8 | 
[V:3] d8 | 
[V:4] G,,8 | 
[V:1] d2d2d4 | 
[V:2] x8 | 
[V:3] d8- | 
[V:4] z4z2D,2 | 
[V:1] A8 | 
[V:2] x8 | 
[V:3] d4d4 | 
[V:4] D,2D,2D,4 | 
[V:1] z8 | 
[V:2] x8 | 
[V:3] e8 | 
[V:4] A,,2A,,2C,3B,, | 
[V:1] z8 | 
[V:2] x8 | 
[V:3] d4c4 | 
[V:4] G,,2B,,2A,,4 | 
[V:1] z2d2d2d2 | 
[V:2] x8 | 
[V:3] B8 | 
[V:4] G,,4z2D,2 | 
[V:1] d4A4 | 
[V:2] x8 | 
[V:3] A8 | 
[V:4] D,2D,2D,4 | 
[V:1] z2A2c3B | 
[V:2] x8 | 
[V:3] c3de4- | 
[V:4] A,,8 | 
[V:1] G2A3GG2- | 
[V:2] x8 | 
[V:3] e4d4 | 
[V:4] z8 | 
[V:1] G2^F2G4 | 
[V:2] x8 | 
[V:3] c4B3A | 
[V:4] z8 | 
[V:1] z2G4G2 | 
[V:2] x8 | 
[V:3] G4G4 | 
[V:4] z2G,4C,2 | 
[V:1] G2C2F4 | 
[V:2] x8 | 
[V:3] G2A4B2 | 
[V:4] E,2F,2D,4 | 
[V:1] E4z2F2- | 
[V:2] x8 | 
[V:3] c4c4- | 
[V:4] C,4z2F,2- | 
[V:1] F2F2F4 | 
[V:2] x8 | 
[V:3] c4c4 | 
[V:4] F,2F,2F,4 | 
[V:1] E4z2F2- | 
[V:2] x8 | 
[V:3] c8- | 
[V:4] C,4z2F,2- | 
[V:1] F2F2F4 | 
[V:2] x8 | 
[V:3] c8 | 
[V:4] F,2F,2F,4 | 
[V:1] !fermata!E8 ||  
[V:2] x8 ||  
[V:3] !fermata!c8 ||  
[V:4] !fermata!C,8 ||  
[V:1]  [K:C] [K:clef=treble][M:2/1]z2G2G2G2 | 
[V:2]  [K:C] [K:clef=treble-8][M:2/1]x8 | 
[V:3]  [K:C] [K:clef=treble-8][M:2/1]B8- | 
[V:4]  [K:C] [K:clef=bass][M:2/1]G,4G,4 | 
[V:1] D2G2F2E2 | 
[V:2] x8 | 
[V:3] B4B4 | 
[V:4] G,4D,2G,2 | 
[V:1] G3F/E/D2G2 | 
[V:2] x8 | 
[V:3] B8 | 
[V:4] E,2D,2G,4 | 
[V:1] E4A2A2 | 
[V:2] x8 | 
[V:3] c8- | 
[V:4] C,4z2F,2 | 
[V:1] G4z2A2 | 
[V:2] x8 | 
[V:3] c4d4 | 
[V:4] E,2C,2F,2F,2 | 
[V:1] G4c2c2 | 
[V:2] x8 | 
[V:3] e8- | 
[V:4] E,4z2A,2 | 
[V:1] B4z2c2 | 
[V:2] x8 | 
[V:3] e4f4 | 
[V:4] G,2E,2A,2A,2 | 
[V:1] B4e2e2 | 
[V:2] x8 | 
[V:3] g4g4- | 
[V:4] G,4z2C,2 | 
[V:1] d2e2d2e2- | 
[V:2] x8 | 
[V:3] g4g4 | 
[V:4] G,2C,2G,2C,2 | 
[V:1] edcBc4 | 
[V:2] x8 | 
[V:3] c8 | 
[V:4] z2C,2F,2C,2 | 
[V:1] B8 | 
[V:2] x8 | 
[V:3] d8 | 
[V:4] G,4G,,2G,2- | 
[V:1] z4d4 | 
[V:2] x8 | 
[V:3] B8 | 
[V:4] G,2E,2D,4 | 
[V:1] e3dcBc2- | 
[V:2] x8 | 
[V:3] c4c4 | 
[V:4] C,4z2F,2 | 
[V:1] cBAGA2A2 | 
[V:2] x8 | 
[V:3] c6c2 | 
[V:4] F,2F,2F,3C, | 
[V:1] G8 | 
[V:2] x8 | 
[V:3] e8- | 
[V:4] C,4z2C,2 | 
[V:1] z2G2GFGA | 
[V:2] x8 | 
[V:3] e4e4 | 
[V:4] C,2C,2C,3G,, | 
[V:1] BABcded2- | 
[V:2] x8 | 
[V:3] d8 | 
[V:4] G,,4z2G,,2 | 
[V:1] dcc4B2 | 
[V:2] x8 | 
[V:3] d8 | 
[V:4] B,,3C,G,,4 | 
[V:1] c2C2EDEF | 
[V:2] x8 | 
[V:3] c8- | 
[V:4] C,8- | 
[V:1] G2CDEFG2- | 
[V:2] x8 | 
[V:3] c8- | 
[V:4] C,4z2C,2 | 
[V:1] GFF4E2 | 
[V:2] x8 | 
[V:3] c8 | 
[V:4] E,2F,2C,4 | 
[V:1] F4z2A2- | 
[V:2] x8 | 
[V:3] c8 | 
[V:4] F,4z2E,2- | 
[V:1] A2A4A2 | 
[V:2] x8 | 
[V:3] c8- | 
[V:4] E,2F,4F,2 | 
[V:1] G2c2c3B/A/ | 
[V:2] x8 | 
[V:3] c8 | 
[V:4] C,8 | 
[V:1] B4z2d2- | 
[V:2] x8 | 
[V:3] G8 | 
[V:4] z2G,4G,2- | 
[V:1] d2d4d2 | 
[V:2] x8 | 
[V:3] B3cd3e | 
[V:4] G,2G,2D,2G,2 | 
[V:1] A4z2A2 | 
[V:2] x8 | 
[V:3] f4f4 | 
[V:4] F,2D,2F,3E, | 
[V:1] G2c2B2e2- | 
[V:2] x8 | 
[V:3] g2g2g2g2 | 
[V:4] C,4z2C,2 | 
[V:1] e2dcB4 | 
[V:2] x8 | 
[V:3] c4d3e | 
[V:4] C,2C,2G,,2G,2 | 
[V:1] A4z2c2- | 
[V:2] x8 | 
[V:3] f4f4 | 
[V:4] F,2D,2F,3E, | 
[V:1] c2c4c2 | 
[V:2] x8 | 
[V:3] e8- | 
[V:4] C,8- | 
[V:1] G4z2c2 | 
[V:2] x8 | 
[V:3] e4g4 | 
[V:4] C,8 | 
[V:1] A3Bc2A2- | 
[V:2] x8 | 
[V:3] f6f2 | 
[V:4] z2F,4F,2 | 
[V:1] A2GFE2G2 | 
[V:2] x8 | 
[V:3] c8 | 
[V:4] F,4C,4 | 
[V:1] G2G2D2z2 | 
[V:2] x8 | 
[V:3] d4B4 | 
[V:4] z2G,2G,2G,2 | 
[V:1] F2F2F2C2 | 
[V:2] x8 | 
[V:3] A8 | 
[V:4] D,2F,2F,2F,2 | 
[V:1] CB,CDE3F | 
[V:2] x8 | 
[V:3] G4c4 | 
[V:4] C,4z2C,2 | 
[V:1] G3ABcdB | 
[V:2] x8 | 
[V:3] c4d4 | 
[V:4] C,2C,2G,,2G,2 | 
[V:1] c3BAGA2 | 
[V:2] x8 | 
[V:3] e4f4 | 
[V:4] E,2C,2F,4 | 
[V:1] G2C2CB,CD | 
[V:2] x8 | 
[V:3] g8 | 
[V:4] C,4z2C2- | 
[V:1] E3FG3A | 
[V:2] x8 | 
[V:3] c4e4 | 
[V:4] C2C2C4 | 
[V:1] Bcd3cB2 | 
[V:2] x8 | 
[V:3] d8 | 
[V:4] G,4z2G,2 | 
[V:1] c4z2c2- | 
[V:2] x8 | 
[V:3] c8 | 
[V:4] E,2C,2F,4 | 
[V:1] c2c2c4 | 
[V:2] x8 | 
[V:3] c8- | 
[V:4] C,4z2F,2 | 
[V:1] G2G2A2A2 | 
[V:2] x8 | 
[V:3] c4c4 | 
[V:4] E,2C,2F,4 | 
[V:1] G4z2E2- | 
[V:2] x8 | 
[V:3] c4G2G2- | 
[V:4] C,4z2C,2- | 
[V:1] E2E2E4 | 
[V:2] x8 | 
[V:3] G2G2G4 | 
[V:4] C,2C,2C,4 | 
[V:1] !fermata!D8 |]  
[V:2] x8 |]  
[V:3] !fermata!G8 |]  
[V:4] !fermata!G,,8 |]  



